X:1
T:9. Ronde
T:9. Ronde
T:Tielman Susato
C:Tielman Susato
%%score 1 2 3 4
L:1/8
M:4/2
K:C
V:1 treble 
V:2 treble 
V:3 treble 
V:4 treble 
V:1
 G2 | F2 D2 D2 F2 E2 C2 C2 E2 | D2 _B,2 C2 D2 E4 C2 G2 | F2 D2 D2 F2 E4 D2 C2 | %4
 B,2 A,2 C2 B,2 C4 z2 :: C2 | F2 E2 F2 G2 A6 A2 | G2 F2 E2 D2 E4 C2 C2 | F2 E2 F2 G2 A6 A2 | %9
 G2 F2 E2 D2 E4 z2 :| z2 |: E4 E2 E2 E6 E2 | E2 C2 D2 E2 F8 |1 E4 E2 E2 D4 C4 | %14
 B,2 A,2 C2 B,2 C8 :|2 E4 E2 E2 D4 C4 | B,2 A,2 C2 B,2 C8 |] %17
V:2
 B,2 | D4 B,2 B,2 C4 A,2 G,2 | _B,4 A,4 G,4 A,2 B,2 | D4 B,2 A,2 C4 A,4 | G,2 F,2 G,4 C,4 z2 :: %5
 E2 | D6 D2 E4 F4 | E2 D2 C2 B,2 A,4 E4 | D6 D2 E4 F4 | E2 D2 C2 B,2 A,4 z2 :| z2 |: %11
 C4 C2 C2 C6 C2 | C4 A,2 C2 C8 |1 C6 _B,2 B,4 G,4 | G,4 G,4 E,8 :|2 C4 C2 C2 A,4 F,4 | %16
 G,4 G,4 E,8 |] %17
V:3
 G,2 | A,4 G,2 F,2 G,4 F,2 E,2 | F,2 G,2 F,4 E,4 E,2 G,2 | A,4 G,2 F,2 G,4 F,2 E,2 | %4
 D,2 C,2 D,4 C,4 z2 :: E,2 | A,2 G,2 A,2 B,2 C6 F,2 | G,2 A,2 G,2 F,2 E,6 E,2 | %8
 A,2 G,2 A,2 B,2 C6 F,2 | G,2 A,2 G,2 F,2 E,4 z2 :| z2 |: G,4 G,2 G,2 G,6 G,2 | %12
 G,2 A,2 F,2 G,2 A,8 |1 G,4 G,2 G,2 F,4 E,4 | D,4 D,4 C,8 :|2 G,4 G,2 E,2 F,2 E,2 D,2 C,2 | %16
 D,4 D,4 C,8 |] %17
V:4
 G,,2 | D,4 G,,2 D,2 C,4 F,,2 C,2 | _B,,2 G,,2 A,,2 B,,2 C,4 A,,2 G,,2 | D,4 G,,2 D,2 C,4 F,,4 | %4
 G,,2 A,,2 G,,4 C,4 z2 :: C,2 | D,6 C,B,, A,,4 F,,4 | C,6 D,2 A,,6 C,2 | D,6 C,B,, A,,4 F,,4 | %9
 C,6 D,2 A,,4 z2 :| z2 |: C,4 C,2 C,2 C,6 C,2 | C,2 A,2 D,2 C,2 F,,8 |1 C,4 C,2 G,,2 _B,,4 C,4 | %14
 G,,4 G,,4 C,,8 :|2 C,4 C,2 C,2 F,,4 A,,4 | G,,4 G,,4 C,,8 |] %17

